X: 8137
T: Convent, The
R: reel
M: 4/4
K: Dmajor
A|:DFEG EDDd|Adfe dBB2|AFAd fedB|AFDE FDDF
DFEG EDDd|Adfe dBB2|AFAd fedB|1 AFEA FDDE|2 AFEA FDDe||
|:fedf afef|dafe dBB2|Adfe dfaf|[ce]def efge|
fedf afef|dafe dBB2|AFAd BGBd|1 cdec d3e:|2 cdec d2z2||
A|:DFEG EDDd|Adfe dBB2|AFAd fedB|AFDE FDDF
DFEG EDDd|Adfe dBB2|AFAd fedB|1 AFEA FDD2|2 AFEA FDDg||
|:fedf afef|dafe dBBd|AFAB defd|edef efge|
fedf afef|defe dBB2|AFAd BGBd|1 cdec d3g:|2 cdec dBAF||

